X:2
T:Triumph,The. AJH.002
M:2/4
L:1/16
Q:1/4=100
O:England
S:A.J.Hughes MS
A:North Shropshire
Z:Neil Brookes 2006
K:G
g2|(dB)BG (cA)AF”qu’s in MS”|Ggfg e2d2|dBBG cAAF|G2B2 G2:|!
|:z2|A3c B2d2|A3c B2d2|A2B2 c2e2|dcBA G2:|!
A2|B3d dcBc|A3B cBAB|GABc defg|dcBA G3G|!
B3d dcBd|A3B cBAB|GABc defg|fgaf g2|]

